symbols/web/villa/materialsymbolsrounded/villa_wght200fill1_24px.svg

<svg xmlns="http://www.w3.org/2000/svg" height="24" width="24"><path d="M4.8 20q-.325 0-.562-.238Q4 19.525 4 19.2V9.25q0-.25.138-.463.137-.212.387-.287l9.6-3.7q.4-.175.75.075t.35.675V12H9.8q-.325 0-.562.238Q9 12.475 9 12.8V20Zm5.975 0q-.325 0-.55-.225-.225-.225-.225-.55V13.8q0-.325.238-.562.237-.238.562-.238h6.125q0-.625.45-1.088.45-.462 1.075-.462.65 0 1.1.462.45.463.45 1.088v6.2q0 .325-.237.562-.238.238-.563.238h-3.425v-2.55q0-.3-.237-.525Q15.3 16.7 15 16.7q-.325 0-.55.225-.225.225-.225.525V20Z"/></svg>

<svg xmlns="http://www.w3.org/2000/svg" height="24" width="24"><path d="M4.8 20Q4.475 20 4.238 19.762Q4 19.525 4 19.2V9.25Q4 9 4.138 8.787Q4.275 8.575 4.525 8.5L14.125 4.8Q14.525 4.625 14.875 4.875Q15.225 5.125 15.225 5.55V12H9.8Q9.475 12 9.238 12.238Q9 12.475 9 12.8V20ZM10.775 20Q10.45 20 10.225 19.775Q10 19.55 10 19.225V13.8Q10 13.475 10.238 13.238Q10.475 13 10.8 13H16.925Q16.925 12.375 17.375 11.912Q17.825 11.45 18.45 11.45Q19.1 11.45 19.55 11.912Q20 12.375 20 13V19.2Q20 19.525 19.763 19.762Q19.525 20 19.2 20H15.775V17.45Q15.775 17.15 15.538 16.925Q15.3 16.7 15 16.7Q14.675 16.7 14.45 16.925Q14.225 17.15 14.225 17.45V20Z"/></svg>
